src/actions/24/labplot-xy-smoothing-curve.svg

<svg xmlns="http://www.w3.org/2000/svg" viewBox="0 0 24 24">
  <defs id="defs3051">
    <style type="text/css" id="current-color-scheme">
      .ColorScheme-Text {
        color:#363636;
      }
      .ColorScheme-Highlight {
        color:#3daee9;
      }
      </style>
  </defs><g transform="translate(1,1)">
 <path 
     style="fill:currentColor;fill-opacity:1;stroke:none" 
     d="m 4,3 0,14 -1,0 0,1 1,0 0,1 1,0 0,-1 14,0 0,-1 -11,0 0,-3 4,0 0,-1 0,-4 3,0 0,-1 0,-3 4,0 0,-1 -3,0 -2,0 0,4 -3,0 0,1 0,4 -4,0 0,1 0,3 -2,0 0,-14 z"
     class="ColorScheme-Text"
     />
 <path 
     style="fill:currentColor;fill-opacity:1;stroke:none" 
     d="M 18.996094 4 C 17.318298 4.0147218 15.882867 4.9286614 14.630859 6.1972656 C 13.378852 7.4658699 12.274223 9.1100804 11.208984 10.732422 C 10.143746 12.354763 9.117216 13.956734 8.0800781 15.123047 C 7.0429402 16.28936 6.0347103 16.977377 5 16.978516 L 5 17.978516 C 6.4652897 17.976903 7.7081101 17.048575 8.828125 15.789062 C 9.9481399 14.529551 10.984438 12.89635 12.044922 11.28125 C 13.105406 9.6661502 14.188096 8.0693852 15.341797 6.9003906 C 16.495498 5.731396 17.684591 5.0115764 19.003906 5 L 18.996094 4 z "
     class="ColorScheme-Highlight"
     />
</g></svg>

<svg xmlns="http://www.w3.org/2000/svg" viewBox="0 0 24 24">
    <path d="M4 3v14H3v1h1v1h1v-1h14v-1H8v-3h4V9h3V5h4V4h-5v4h-3v5H7v4H5V3z" style="fill:currentColor;fill-opacity:1;stroke:none;color:#050505;opacity:.7" transform="translate(1 1)"/>
    <path d="M18.996 4c-1.678.015-3.113.929-4.365 2.197-1.252 1.269-2.357 2.913-3.422 4.535-1.065 1.623-2.092 3.225-3.129 4.391S6.035 16.977 5 16.979v1c1.465-.002 2.708-.93 3.828-2.19 1.12-1.26 2.156-2.893 3.217-4.508 1.06-1.615 2.143-3.212 3.297-4.38C16.495 5.73 17.685 5.01 19.004 5l-.008-1z" style="fill:currentColor;fill-opacity:1;stroke:none;color:#a0b6cb" transform="translate(1 1)"/>
</svg>
